!!!SOCIAL_FUNCTION:	bird dance songs
!!!PDT:	1956
!!!OTL: No_101_Stomp_Dance_Song_(c).krn
!!!LANG: Non-Tone
!!!LING_GROUP: Muskogean
!!!REG: Florida
**kern
*staff1
=1-
=
*clefF4
*k[b-]
*M2/4
8.c\L
16A\Jk
16G\LK
8.F\J
=2
8.F\L
16F\Jk
4F\
=3
8.F/L
16C/Jk
16G\LK
8.F\J
=4
8.F\L
16F\Jk
4F\
=5
8.c\L
16A\Jk
16G\LK
8.F\J
=6
8.F\L
16F\Jk
4F\
=7
(16G\LL
16F\)
16D\
16D\JJ
16G\LK
8.F\J
=8
8.F\L
16F\Jk
4F\
=9:|!
2r
=10
8.f\L
16f\Jk
4f\
=11
8.f\L
16c\Jk
16c\LK
8.c\J
=12
16c\LK
(8f\
16d\Jk)
16c\LK
(8.c\J
=13||
*M3/4
16A\LK)
8.A\J
16F\LK
8F\
16F\Jk
4F\
=14!|:
*M2/4
8.c\L
16d\Jk
(8.c\L
16G\Jk)
=15
8.B-\L
16G\Jk
4F\
=16||
*M3/4
8f\L
16f\L
16g\JJ
(4.f\
8d\)
=17
16f\LL
16f\J
8d\J
16c\LK
8.c\J
8c\
8r
=18||
*M2/4
(8f\L
24d\K)
12c\J
(8c\L
24A\K)
12A\J
=19
12A\L
(12A\
12F\J)
4F\
=20:|!
8.c\L
16A\Jk
16G\LK
8.F\J
=21
8.F\L
16F\Jk
4F\
=22
8.F/L
16C/Jk
16G\LK
8.F\J
=23
8.F\L
16F\Jk
4F\
==
*-
